app/dist/common/images/credit-corp-group.svg

<svg height="18" width="18" xmlns="http://www.w3.org/2000/svg"><path d="m0 0h18v18h-18z" fill="#f0f3fa"/><path d="m12 7-1 .45s-.84-.45-2.84-.45c-2.63 0-4.16.92-4.16 1.94 0 1.01 1.26 2.06 4.16 2.06s3.86-.76 3.86-.76l.98.35s-1.41 1.41-4.84 1.41-5.16-1.19-5.16-2.94 1.53-2.75 3.95-3a8.6 8.6 0 0 1 5.05.94z" fill="#34424b"/><path d="m10 9-.97-.4 6.97-1.6-2.4 3-1-.31 1.4-1.52z" fill="#a80c2a"/></svg>

<!-- by TradingView --><svg xmlns="http://www.w3.org/2000/svg" width="18" height="18"><path fill="#F0F3FA" d="M0 0h18v18H0z"/><path d="M12 7l-1 .45S10.16 7 8.16 7C5.53 7 4 7.92 4 8.94 4 9.95 5.26 11 8.16 11c2.9 0 3.86-.76 3.86-.76l.98.35S11.59 12 8.16 12C4.73 12 3 10.81 3 9.06s1.53-2.75 3.95-3A8.6 8.6 0 0112 7z" fill="#34424B"/><path d="M10 9l-.97-.4L16 7l-2.4 3-1-.31L14 8.17 10 9z" fill="#A80C2A"/></svg>
